X:1878
T:Brudvals från Bjurtjärn efter Karl Nilsa
R:Vals
S:Efter Karl Nilsa
O:Bjurtjärn, Karlskoga, Värmland
B:
Z:ABC-transkribering av Per Saxholm
M:3/4
L:1/8
K:D
A2|f3ff2|f2e2f2|a3baf|d3cdf|e3fed|c2B2A2|e3fed|cBAGFE|D2ffff|f2e2f2|a3baf|d3cdf|e2f2g2|A2B2c2|d3dd2|d4:|zedc|d2bbb2|c2aaa2|B2ggg2|gf ag fe|d2bbb2|c2aaa2|B2ggg2|gf ag fe|A3ff2|f2e2f2|a3baf|d3cdf|e2f2g2|A2B2c2|d3dd2|d4:| 
(:musicend:)
(:music:)
